X: 792
T: Suku fanshen
L: 1/8
M: 2/4
K: F
c2A c [I:setbarnb 1]| 
d f c A | 
G4 | 
c2A B | 
A GF2- | 
F2G2 | 
c2B A | 
G2C D | 
F4 | 
E2D F | 
G DC2- | 
C2z2 |]

@@@ Tune index: 9666
